source/svgs/bike.svg

<svg xmlns="http://www.w3.org/2000/svg" viewBox="0 0 8.43 7.9" preserveAspectRatio="xMinYMax"><g fill="#F5F5F5"><path d="M4.96 6.17c0 .96.78 1.73 1.73 1.73s1.73-.78 1.73-1.73-.77-1.74-1.72-1.74-1.74.78-1.74 1.74zm.74 0c0-.55.45-1 1-1s1 .45 1 1-.45 1-1 1-1-.45-1-1zM0 6.17C0 7.12.78 7.9 1.73 7.9s1.73-.78 1.73-1.73-.77-1.74-1.73-1.74S0 5.21 0 6.17zm.74 0c0-.55.45-1 1-1s1 .45 1 1-.45 1-1 1-1-.45-1-1z"/><path d="M3.67 4.79v2.14c0 .3.25.55.55.55s.55-.25.55-.55V5.04l1.2-1.06c.11-.1.19-.25.19-.4 0-.16-.06-.3-.17-.41L4.07 1.34c-.12-.12-.28-.17-.45-.15-.16.01-.3.11-.4.24l-.68 1.03-.65.02c-.3.02-.54.27-.53.58.01.3.27.54.57.53l.93-.03c.18 0 .34-.1.44-.25l.48-.72 1.01.97-.93.82c-.11.11-.19.25-.19.41z"/><circle cx="2.47" cy=".73" r=".73"/></g></svg>

<?xml version="1.0" encoding="utf-8"?>
<!-- Generator: Adobe Illustrator 18.1.0, SVG Export Plug-In . SVG Version: 6.00 Build 0)  -->
<svg version="1.1" id="Layer_1" xmlns="http://www.w3.org/2000/svg" xmlns:xlink="http://www.w3.org/1999/xlink" x="0px" y="0px"
	 viewBox="0 0 8.43 7.9" enable-background="new 0 0 8.43 7.9" xml:space="preserve" preserveAspectRatio="xMinYMax">
<g>
	<path fill="#F5F5F5" d="M4.96,6.17c0,0.96,0.78,1.73,1.73,1.73s1.73-0.78,1.73-1.73S7.65,4.43,6.7,4.43S4.96,5.21,4.96,6.17z
		 M5.7,6.17c0-0.55,0.45-1,1-1c0.55,0,1,0.45,1,1s-0.45,1-1,1C6.15,7.17,5.7,6.72,5.7,6.17z"/>
	<path fill="#F5F5F5" d="M0,6.17C0,7.12,0.78,7.9,1.73,7.9s1.73-0.78,1.73-1.73S2.69,4.43,1.73,4.43S0,5.21,0,6.17z M0.74,6.17
		c0-0.55,0.45-1,1-1c0.55,0,1,0.45,1,1s-0.45,1-1,1C1.19,7.17,0.74,6.72,0.74,6.17z"/>
	<path fill="#F5F5F5" d="M3.67,4.79v2.14c0,0.3,0.25,0.55,0.55,0.55s0.55-0.25,0.55-0.55V5.04l1.2-1.06c0.11-0.1,0.19-0.25,0.19-0.4
		c0-0.16-0.06-0.3-0.17-0.41L4.07,1.34C3.95,1.22,3.79,1.17,3.62,1.19C3.46,1.2,3.32,1.3,3.22,1.43L2.54,2.46L1.89,2.48
		C1.59,2.5,1.35,2.75,1.36,3.06c0.01,0.3,0.27,0.54,0.57,0.53l0.93-0.03c0.18,0,0.34-0.1,0.44-0.25l0.48-0.72l1.01,0.97L3.86,4.38
		C3.75,4.49,3.67,4.63,3.67,4.79z"/>
	<circle fill="#F5F5F5" cx="2.47" cy="0.73" r="0.73"/>
</g>
</svg>
